X:12922
%16178
T:Swedish
M:6/8
L:1/8
K:Cmaj
cBA|GAG GFE|DCB, C3|Gcd e3|dcB c3|!
Gcd e3|dcB c2G|AGF EDC|
%Error : stray / not in grace sequence

M:9/8
DCB, CG,A, B,CD|!
M:6/8
